assets/img/components/stepper-header.svg

<svg width="578" height="145" viewBox="0 0 578 145" fill="none" xmlns="http://www.w3.org/2000/svg">
<path d="M471.938 145H577.062C577.062 64.9187 512.144 0 432.062 0V105.125C432.062 127.147 449.915 145 471.938 145Z" fill="#286AD8"/>
<path d="M361.335 0C401.467 0 434 32.4593 434 72.5C434 112.541 401.467 145 361.335 145H183.424C161.651 145 144 127.147 144 105.125V0H361.335Z" fill="#286AD8"/>
<path d="M72.5 145C112.541 145 145 112.541 145 72.5C145 32.4594 112.541 0 72.5 0C32.4593 0 0 32.4594 0 72.5C0 112.541 32.4593 145 72.5 145Z" fill="#286AD8"/>
<g style="mix-blend-mode:multiply" opacity="0.4">
<path d="M205.194 34.8486C208.136 34.8487 210.782 36.0943 212.652 38.0781L222.423 48.1289L226.951 48.1055C226.399 47.6808 226.036 47.0204 226.036 46.2695C226.036 44.9868 227.076 43.9475 228.358 43.9473H289.604C290.355 43.9473 291.017 44.3094 291.441 44.8623L388.046 139.943C379.777 143.206 370.766 145 361.335 145H226.337L198.127 116.79C196.165 114.924 194.935 112.298 194.935 109.375C194.935 103.709 199.528 99.1152 205.194 99.1152C205.216 99.1153 205.237 99.118 205.259 99.1182C205.28 99.118 205.302 99.1152 205.323 99.1152C205.841 99.1152 206.345 99.1663 206.842 99.2402L204.526 96.6562V91.0674L198.164 84.6992C196.18 82.8285 194.935 80.1832 194.935 77.2412C194.935 71.5752 199.528 66.9824 205.194 66.9824C205.762 66.9824 206.314 67.0403 206.856 67.1289L204.526 64.5234V58.9336L198.164 52.5664C196.18 50.6958 194.935 48.0503 194.935 45.1084C194.935 39.4423 199.528 34.8486 205.194 34.8486Z" fill="#1545BB"/>
</g>
<path d="M215.453 45.1081C215.453 50.7742 210.86 55.3674 205.194 55.3674C199.528 55.3674 194.935 50.7742 194.935 45.1081C194.935 39.4419 199.528 34.8486 205.194 34.8486C210.86 34.8486 215.453 39.4419 215.453 45.1081Z" fill="#5187DF"/>
<path d="M215.453 77.2409C215.453 82.907 210.86 87.5002 205.194 87.5002C199.528 87.5002 194.935 82.907 194.935 77.2409C194.935 71.5748 199.528 66.9814 205.194 66.9814C210.86 66.9814 215.453 71.5748 215.453 77.2409Z" fill="#5187DF"/>
<path d="M215.453 109.375C215.453 115.041 210.86 119.634 205.194 119.634C199.528 119.634 194.935 115.041 194.935 109.375C194.935 103.709 199.528 99.1152 205.194 99.1152C210.86 99.1152 215.453 103.709 215.453 109.375Z" fill="#5187DF"/>
<path d="M221.482 46.2691C221.482 44.9862 222.522 43.9463 223.805 43.9463H289.62C290.903 43.9463 291.943 44.9862 291.943 46.2691C291.943 47.552 290.903 48.592 289.62 48.592H223.805C222.522 48.592 221.482 47.552 221.482 46.2691Z" fill="#5187DF"/>
<path d="M221.482 109.375C221.482 108.092 222.522 107.052 223.805 107.052H299.686C300.969 107.052 302.009 108.092 302.009 109.375C302.009 110.658 300.969 111.698 299.686 111.698H223.805C222.522 111.698 221.482 110.658 221.482 109.375Z" fill="#5187DF"/>
<path d="M221.482 77.822C221.482 76.539 222.522 75.499 223.805 75.499H315.5C316.783 75.499 317.824 76.539 317.824 77.822C317.824 79.1048 316.783 80.1448 315.5 80.1448H223.805C222.522 80.1448 221.482 79.1048 221.482 77.822Z" fill="#5187DF"/>
<rect x="204.194" y="89.5576" width="2" height="7.5" rx="1" fill="#5187DF"/>
<rect x="204.194" y="57.4243" width="2" height="7.5" rx="1" fill="#5187DF"/>
</svg>

<svg xmlns="http://www.w3.org/2000/svg" width="578" height="145" fill="none" viewBox="0 0 578 145"><path fill="#286ad8" d="M471.938 145h105.124c0-80.081-64.918-145-145-145v105.125c0 22.022 17.853 39.875 39.876 39.875"/><path fill="#286ad8" d="M361.335 0C401.467 0 434 32.46 434 72.5S401.467 145 361.335 145H183.424C161.651 145 144 127.147 144 105.125V0z"/><path fill="#286ad8" d="M72.5 145c40.041 0 72.5-32.459 72.5-72.5S112.541 0 72.5 0 0 32.46 0 72.5 32.46 145 72.5 145"/><path fill="#1545bb" d="M205.194 34.849a10.22 10.22 0 0 1 7.458 3.23l9.771 10.05 4.528-.023a2.31 2.31 0 0 1-.915-1.837 2.32 2.32 0 0 1 2.322-2.322h61.246a2.31 2.31 0 0 1 1.837.915l96.605 95.081c-8.269 3.263-17.28 5.057-26.711 5.057H226.337l-28.21-28.21a10.2 10.2 0 0 1-3.192-7.415c0-5.666 4.593-10.26 10.259-10.26q.032.001.065.003l.064-.003c.518 0 1.022.051 1.519.125l-2.316-2.584v-5.589l-6.362-6.368a10.22 10.22 0 0 1-3.229-7.458c0-5.666 4.593-10.259 10.259-10.259.568 0 1.12.058 1.662.147l-2.33-2.606v-5.59l-6.362-6.367a10.22 10.22 0 0 1-3.229-7.458c0-5.666 4.593-10.26 10.259-10.26" opacity=".4" style="mix-blend-mode:multiply"/><path fill="#5187df" d="M215.453 45.108c0 5.666-4.593 10.26-10.259 10.26s-10.259-4.594-10.259-10.26 4.593-10.26 10.259-10.26 10.259 4.594 10.259 10.26M215.453 77.24c0 5.667-4.593 10.26-10.259 10.26s-10.259-4.593-10.259-10.26c0-5.665 4.593-10.259 10.259-10.259s10.259 4.594 10.259 10.26M215.453 109.375c0 5.666-4.593 10.259-10.259 10.259s-10.259-4.593-10.259-10.259 4.593-10.26 10.259-10.26 10.259 4.594 10.259 10.26M221.482 46.27a2.323 2.323 0 0 1 2.323-2.324h65.815a2.323 2.323 0 1 1 0 4.646h-65.815a2.323 2.323 0 0 1-2.323-2.323M221.482 109.375a2.323 2.323 0 0 1 2.323-2.323h75.881a2.323 2.323 0 1 1 0 4.646h-75.881a2.323 2.323 0 0 1-2.323-2.323M221.482 77.822a2.323 2.323 0 0 1 2.323-2.323H315.5a2.324 2.324 0 1 1 0 4.646h-91.695a2.323 2.323 0 0 1-2.323-2.323"/><rect width="2" height="7.5" x="204.194" y="89.558" fill="#5187df" rx="1"/><rect width="2" height="7.5" x="204.194" y="57.424" fill="#5187df" rx="1"/></svg>
